svg/blobs-icons/no-decorations/ointment-cream.svg

<svg xmlns="http://www.w3.org/2000/svg" xmlns:xlink="http://www.w3.org/1999/xlink" preserveAspectRatio="xMidYMid" width="218" height="217" viewBox="0 0 218 217"><defs><style>.cls-3{fill:#142a3b}.cls-4{fill:#020403;opacity:.35}.cls-5{fill:#fccb56}.cls-6{fill:#fff}.cls-9{fill:#fbb713}</style></defs><g id="group-130svg"><path d="M201.425 59.486s-43.691-43.722-43.691-43.722S173.916 2.626 173.916 2.626C178.572-1.156 185.33-.803 189.571 3.439L213.433 27.32C217.608 31.498 218.021 38.134 214.396 42.798L201.425 59.486z" id="path-1" class="cls-3" fill-rule="evenodd"/><path d="M214.379 42.819C218.008 38.15 217.602 31.513 213.432 27.32L213.192 27.078C212.81 27.949 212.359 28.797 211.752 29.577L205.42 37.725C201.895 42.259 195.194 42.676 191.134 38.615L163.568 11.028s-5.834 4.736-5.834 4.736 43.691 43.723 43.691 43.723 12.954-16.668 12.954-16.668z" id="path-2" class="cls-4" fill-rule="evenodd"/><path d="M82.771 216.888S-.012 134.044-.012 134.044s19.316-24.852 19.316-24.852 88.302 88.365 88.302 88.365-24.835 19.331-24.835 19.331z" id="path-3" class="cls-5" fill-rule="evenodd"/><path d="M181.995 38.366C181.07 38.366 180.145 38.014 179.44 37.309 178.027 35.898 178.027 33.609 179.437 32.196l8.392-8.401C189.241 22.382 191.532 22.382 192.94 23.792 194.354 25.203 194.354 27.492 192.944 28.905l-8.392 8.401C183.846 38.012 182.919 38.366 181.995 38.366z" id="path-4" class="cls-6" fill-rule="evenodd"/><path d="M170.958 27.32C169.963 27.32 168.973 26.911 168.258 26.111 166.93 24.619 167.062 22.335 168.551 21.007l8.881-7.915C178.924 11.764 181.206 11.894 182.536 13.385 183.864 14.877 183.733 17.161 182.244 18.49L173.362 26.404C172.672 27.019 171.815 27.32 170.958 27.32z" id="path-5" class="cls-6" fill-rule="evenodd"/><path d="M193.03 49.411C192.176 49.411 191.318 49.111 190.631 48.499 189.139 47.17 189.005 44.886 190.332 43.394l7.905-8.887C199.561 33.014 201.848 32.878 203.34 34.207 204.831 35.533 204.965 37.819 203.637 39.31l-7.904 8.889C195.019 49.002 194.028 49.411 193.03 49.411z" id="path-6" class="cls-6" fill-rule="evenodd"/><path d="M102.087 192.035s-77.264-77.32-77.264-77.32 88.288-77.958 88.288-77.958C116.676 33.609 121.267 31.873 126.02 31.873h20.886c3.10499999999999.0 6.083-1.235 8.279-3.433l7.608-7.614s33.113 33.137 33.113 33.137-7.608 7.614-7.608 7.614C186.102 63.775 184.868 66.755 184.868 69.863v20.9C184.868 95.521 183.133 100.115 179.987 103.683l-77.9 88.352z" id="path-7" class="cls-9" fill-rule="evenodd"/><path d="M24.825 114.713s77.289 77.291 77.289 77.291S108.731 184.498 108.731 184.498s-82.219-70.965-82.219-70.965S24.825 114.713 24.825 114.713z" id="path-8" class="cls-4" fill-rule="evenodd"/><path d="M159.177 24.444C158.373 25.25 186.344 64.282 186.344 64.282 186.876 63.307 187.498 62.378 188.297 61.577l7.608-7.612S162.78 20.841 162.78 20.841 159.177 24.444 159.177 24.444z" id="path-9" class="cls-4" fill-rule="evenodd"/></g></svg>

<svg xmlns="http://www.w3.org/2000/svg" xmlns:xlink="http://www.w3.org/1999/xlink" preserveAspectRatio="xMidYMid" width="218" height="217" viewBox="0 0 218 217">
  <defs>
    <style>

      .cls-3 {
        fill: #142a3b;
      }

      .cls-4 {
        fill: #020403;
        opacity: 0.35;
      }

      .cls-5 {
        fill: #fccb56;
      }

      .cls-6 {
        fill: #ffffff;
      }

      .cls-9 {
        fill: #fbb713;
      }
    </style>
  </defs>
  <g id="group-130svg">
    <path d="M201.425,59.486 C201.425,59.486 157.734,15.764 157.734,15.764 C157.734,15.764 173.916,2.626 173.916,2.626 C178.572,-1.156 185.330,-0.803 189.571,3.439 C189.571,3.439 213.433,27.320 213.433,27.320 C217.608,31.498 218.021,38.134 214.396,42.798 C214.396,42.798 201.425,59.486 201.425,59.486 Z" id="path-1" class="cls-3" fill-rule="evenodd"/>
    <path d="M214.379,42.819 C218.008,38.150 217.602,31.513 213.432,27.320 C213.432,27.320 213.192,27.078 213.192,27.078 C212.810,27.949 212.359,28.797 211.752,29.577 C211.752,29.577 205.420,37.725 205.420,37.725 C201.895,42.259 195.194,42.676 191.134,38.615 C191.134,38.615 163.568,11.028 163.568,11.028 C163.568,11.028 157.734,15.764 157.734,15.764 C157.734,15.764 201.425,59.487 201.425,59.487 C201.425,59.487 214.379,42.819 214.379,42.819 Z" id="path-2" class="cls-4" fill-rule="evenodd"/>
    <path d="M82.771,216.888 C82.771,216.888 -0.012,134.044 -0.012,134.044 C-0.012,134.044 19.304,109.192 19.304,109.192 C19.304,109.192 107.606,197.557 107.606,197.557 C107.606,197.557 82.771,216.888 82.771,216.888 Z" id="path-3" class="cls-5" fill-rule="evenodd"/>
    <path d="M181.995,38.366 C181.070,38.366 180.145,38.014 179.440,37.309 C178.027,35.898 178.027,33.609 179.437,32.196 C179.437,32.196 187.829,23.795 187.829,23.795 C189.241,22.382 191.532,22.382 192.940,23.792 C194.354,25.203 194.354,27.492 192.944,28.905 C192.944,28.905 184.552,37.306 184.552,37.306 C183.846,38.012 182.919,38.366 181.995,38.366 Z" id="path-4" class="cls-6" fill-rule="evenodd"/>
    <path d="M170.958,27.320 C169.963,27.320 168.973,26.911 168.258,26.111 C166.930,24.619 167.062,22.335 168.551,21.007 C168.551,21.007 177.432,13.092 177.432,13.092 C178.924,11.764 181.206,11.894 182.536,13.385 C183.864,14.877 183.733,17.161 182.244,18.490 C182.244,18.490 173.362,26.404 173.362,26.404 C172.672,27.019 171.815,27.320 170.958,27.320 Z" id="path-5" class="cls-6" fill-rule="evenodd"/>
    <path d="M193.030,49.411 C192.176,49.411 191.318,49.111 190.631,48.499 C189.139,47.170 189.005,44.886 190.332,43.394 C190.332,43.394 198.237,34.507 198.237,34.507 C199.561,33.014 201.848,32.878 203.340,34.207 C204.831,35.533 204.965,37.819 203.637,39.310 C203.637,39.310 195.733,48.199 195.733,48.199 C195.019,49.002 194.028,49.411 193.030,49.411 Z" id="path-6" class="cls-6" fill-rule="evenodd"/>
    <path d="M102.087,192.035 C102.087,192.035 24.823,114.715 24.823,114.715 C24.823,114.715 113.111,36.757 113.111,36.757 C116.676,33.609 121.267,31.873 126.020,31.873 C126.020,31.873 146.906,31.873 146.906,31.873 C150.011,31.873 152.989,30.638 155.185,28.440 C155.185,28.440 162.793,20.826 162.793,20.826 C162.793,20.826 195.906,53.963 195.906,53.963 C195.906,53.963 188.298,61.577 188.298,61.577 C186.102,63.775 184.868,66.755 184.868,69.863 C184.868,69.863 184.868,90.763 184.868,90.763 C184.868,95.521 183.133,100.115 179.987,103.683 C179.987,103.683 102.087,192.035 102.087,192.035 Z" id="path-7" class="cls-9" fill-rule="evenodd"/>
    <path d="M24.825,114.713 C24.825,114.713 102.114,192.004 102.114,192.004 C102.114,192.004 108.731,184.498 108.731,184.498 C108.731,184.498 26.512,113.533 26.512,113.533 C26.512,113.533 24.825,114.713 24.825,114.713 Z" id="path-8" class="cls-4" fill-rule="evenodd"/>
    <path d="M159.177,24.444 C158.373,25.250 186.344,64.282 186.344,64.282 C186.876,63.307 187.498,62.378 188.297,61.577 C188.297,61.577 195.905,53.965 195.905,53.965 C195.905,53.965 162.780,20.841 162.780,20.841 C162.780,20.841 159.177,24.444 159.177,24.444 Z" id="path-9" class="cls-4" fill-rule="evenodd"/>
  </g>
</svg>
